X:1
T:Mary Had a Little Lamb (Extended)
M:4/4
L:1/4
Q:1/4=100
K:C
E D C D | E E E2 | D D D2 | E G G2 |
E D C D | E E E E | D D E D | C4 |
E E D D | C C D2 | E E D D | C2 G2 |
E D C D | E E E E | D D E D | C4 |]